X: 1
T: the Pleasures of the Town
T: Three Meet
%O: England
R: jig
Z: 1997 by John Chambers <jc:trillian.mit.edu>
B: Schofield & Karpeles p.6
M: 6/8
L: 1/8
K: A
E \
| "A"C2E A2E | "D"F2F "Bm"B2A | "E7"A>BA GFG | "A"A2B "(E7)"c2E \
| "A"C2E A2E | "D"F2F "Bm"B2A | "E7"A>BA GFG | "A"A3- A2 :|
|: e \
| "A"c2e "E7"B2e | "A"cBA "E7"GFE | "A"A2A "E7"BAB | "A"cec "E7"B3 \
| "A"Ma3 "E7"Me3 | "D"Md3 "A"Mc3 | "Bm"BAB "A"cBA | "E7"F2G "A"A2 :|
